assets/images/mute.svg

<svg xmlns="http://www.w3.org/2000/svg" xmlns:xlink="http://www.w3.org/1999/xlink" id="Layer_1" x="0" y="0" version="1.1" viewBox="0 0 20 20" style="enable-background:new 0 0 20 20" xml:space="preserve"><path d="M1 7C1 6.44772 1.44772 6 2 6H5L9.35982 2.36682C10.0111 1.82405 11 2.2872 11 3.13504V16.865C11 17.7128 10.0111 18.176 9.35982 17.6332L5 14H2C1.44772 14 1 13.5523 1 13V7Z"/><path d="M15.7501 11.4143L17.1894 12.8536C17.3847 13.0489 17.7013 13.0489 17.8965 12.8536L18.6036 12.1465C18.7989 11.9513 18.7989 11.6347 18.6036 11.4394L17.1643 10.0001L18.6036 8.56074C18.7989 8.36547 18.7989 8.04889 18.6036 7.85363L17.8965 7.14652C17.7013 6.95126 17.3847 6.95126 17.1894 7.14652L15.7501 8.58586L14.3107 7.14652C14.1155 6.95126 13.7989 6.95126 13.6036 7.14652L12.8965 7.85363C12.7013 8.04889 12.7013 8.36547 12.8965 8.56074L14.3359 10.0001L12.8965 11.4394C12.7013 11.6347 12.7013 11.9513 12.8965 12.1465L13.6036 12.8536C13.7989 13.0489 14.1155 13.0489 14.3107 12.8536L15.7501 11.4143Z"/></svg>

<svg xmlns="http://www.w3.org/2000/svg" xml:space="preserve" viewBox="0 0 20 20"><path d="M1 7a1 1 0 0 1 1-1h3l4.36-3.633a1 1 0 0 1 1.64.768v13.73a1 1 0 0 1-1.64.768L5 14H2a1 1 0 0 1-1-1zm14.75 4.414 1.44 1.44a.5.5 0 0 0 .706 0l.708-.707a.5.5 0 0 0 0-.708L17.164 10l1.44-1.44a.5.5 0 0 0 0-.706l-.707-.707a.5.5 0 0 0-.708 0L15.75 8.586l-1.44-1.44a.5.5 0 0 0-.706 0l-.707.708a.5.5 0 0 0 0 .707L14.336 10l-1.44 1.438a.5.5 0 0 0 0 .707l.708.708a.5.5 0 0 0 .707 0z"/></svg>
